icons/pins/light/bus.svg

<svg width="64" height="78" viewBox="0 0 64 78" fill="none" xmlns="http://www.w3.org/2000/svg">
<mask id="path-1-outside-1_760_8749" maskUnits="userSpaceOnUse" x="0" y="0" width="64" height="78" fill="black">
<rect fill="white" width="64" height="78"/>
<path fill-rule="evenodd" clip-rule="evenodd" d="M2 18C2 9.16344 9.16344 2 18 2H46C54.8366 2 62 9.16344 62 18V46C62 54.8366 54.8366 62 46 62H38.3464C38.2314 62.0019 38.116 62.0029 38 62.0029C34.4524 62.0029 34.0413 64.0618 33.7007 65.7674C33.4598 66.9735 33.2543 68.0029 32 68.0029C30.7307 68.0029 30.4927 66.9486 30.2162 65.7239C29.8332 64.027 29.3763 62.0029 26 62.0029C25.884 62.0029 25.7686 62.0019 25.6536 62H18C9.16344 62 2 54.8366 2 46V18ZM32 76C33.6569 76 35 74.6569 35 73C35 71.3431 33.6569 70 32 70C30.3431 70 29 71.3431 29 73C29 74.6569 30.3431 76 32 76Z"/>
</mask>
<path fill-rule="evenodd" clip-rule="evenodd" d="M2 18C2 9.16344 9.16344 2 18 2H46C54.8366 2 62 9.16344 62 18V46C62 54.8366 54.8366 62 46 62H38.3464C38.2314 62.0019 38.116 62.0029 38 62.0029C34.4524 62.0029 34.0413 64.0618 33.7007 65.7674C33.4598 66.9735 33.2543 68.0029 32 68.0029C30.7307 68.0029 30.4927 66.9486 30.2162 65.7239C29.8332 64.027 29.3763 62.0029 26 62.0029C25.884 62.0029 25.7686 62.0019 25.6536 62H18C9.16344 62 2 54.8366 2 46V18ZM32 76C33.6569 76 35 74.6569 35 73C35 71.3431 33.6569 70 32 70C30.3431 70 29 71.3431 29 73C29 74.6569 30.3431 76 32 76Z" fill="#3885E3"/>
<path d="M38.3464 62V60H38.3294L38.3125 60.0003L38.3464 62ZM33.7007 65.7674L35.662 66.1591V66.1591L33.7007 65.7674ZM30.2162 65.7239L32.1671 65.2835L30.2162 65.7239ZM25.6536 62L25.6875 60.0003L25.6706 60H25.6536V62ZM18 0C8.05888 0 0 8.05887 0 18H4C4 10.268 10.268 4 18 4V0ZM46 0H18V4H46V0ZM64 18C64 8.05888 55.9411 0 46 0V4C53.732 4 60 10.268 60 18H64ZM64 46V18H60V46H64ZM46 64C55.9411 64 64 55.9411 64 46H60C60 53.732 53.732 60 46 60V64ZM38.3464 64H46V60H38.3464V64ZM38 64.0029C38.1272 64.0029 38.254 64.0019 38.3803 63.9997L38.3125 60.0003C38.2088 60.002 38.1047 60.0029 38 60.0029V64.0029ZM35.662 66.1591C35.8505 65.215 35.9754 64.7844 36.2027 64.5034C36.3062 64.3755 36.6392 64.0029 38 64.0029V60.0029C35.8132 60.0029 34.1669 60.6598 33.0928 61.9878C32.1424 63.1626 31.8915 64.6143 31.7394 65.3758L35.662 66.1591ZM32 70.0029C32.5932 70.0029 33.2019 69.8787 33.7624 69.5545C34.3239 69.2297 34.703 68.7818 34.9575 68.3459C35.4006 67.5871 35.5635 66.6523 35.662 66.1591L31.7394 65.3758C31.6761 65.693 31.6314 65.9119 31.5805 66.0982C31.5297 66.2839 31.4978 66.3383 31.5032 66.329C31.5194 66.3012 31.5969 66.1861 31.7596 66.092C31.9213 65.9985 32.0339 66.0029 32 66.0029V70.0029ZM28.2653 66.1643C28.3799 66.672 28.568 67.6051 29.0257 68.3599C29.2866 68.7899 29.6687 69.2314 30.2275 69.5528C30.788 69.8751 31.3979 70.0029 32 70.0029V66.0029C31.9674 66.0029 32.0716 65.999 32.2218 66.0854C32.3703 66.1708 32.4377 66.2721 32.4458 66.2855C32.4476 66.2885 32.4373 66.2718 32.4184 66.2257C32.3995 66.1795 32.3764 66.1145 32.3493 66.0239C32.2915 65.8306 32.2397 65.6048 32.1671 65.2835L28.2653 66.1643ZM26 64.0029C27.249 64.0029 27.5667 64.351 27.6791 64.4891C27.9173 64.782 28.054 65.228 28.2653 66.1643L32.1671 65.2835C31.9954 64.5228 31.7122 63.1084 30.7821 61.965C29.7262 60.6669 28.1273 60.0029 26 60.0029V64.0029ZM25.6197 63.9997C25.746 64.0019 25.8728 64.0029 26 64.0029V60.0029C25.8953 60.0029 25.7912 60.002 25.6875 60.0003L25.6197 63.9997ZM18 64H25.6536V60H18V64ZM0 46C0 55.9411 8.05887 64 18 64V60C10.268 60 4 53.732 4 46H0ZM0 18V46H4V18H0ZM33 73C33 73.5523 32.5523 74 32 74V78C34.7614 78 37 75.7614 37 73H33ZM32 72C32.5523 72 33 72.4477 33 73H37C37 70.2386 34.7614 68 32 68V72ZM31 73C31 72.4477 31.4477 72 32 72V68C29.2386 68 27 70.2386 27 73H31ZM32 74C31.4477 74 31 73.5523 31 73H27C27 75.7614 29.2386 78 32 78V74Z" fill="white" mask="url(#path-1-outside-1_760_8749)"/>
<path d="M16 21C16 18.7909 17.7909 17 20 17H44C46.2091 17 48 18.7909 48 21V45C48 47.2091 46.2091 49 44 49H20C17.7909 49 16 47.2091 16 45V21Z" fill="#3885E3"/>
<path fill-rule="evenodd" clip-rule="evenodd" d="M27 43H37C37 44.1046 37.8954 45 39 45H40C41.1046 45 42 44.1046 42 43V25C42 22.7909 40.2091 21 38 21H26C23.7909 21 22 22.7909 22 25V43C22 44.1046 22.8954 45 24 45H25C26.1046 45 27 44.1046 27 43ZM24 35H40V25H24V35ZM28 39C28 40.1046 27.1046 41 26 41C24.8954 41 24 40.1046 24 39C24 37.8954 24.8954 37 26 37C27.1046 37 28 37.8954 28 39ZM38 41C39.1046 41 40 40.1046 40 39C40 37.8954 39.1046 37 38 37C36.8954 37 36 37.8954 36 39C36 40.1046 36.8954 41 38 41Z" fill="white"/>
</svg>

<svg xmlns="http://www.w3.org/2000/svg" width="64" height="78" fill="none"><mask id="a" width="64" height="78" x="0" y="0" fill="#000" maskUnits="userSpaceOnUse"><path fill="#fff" d="M0 0h64v78H0z"/><path fill-rule="evenodd" d="M2 18C2 9.163 9.163 2 18 2h28c8.837 0 16 7.163 16 16v28c0 8.837-7.163 16-16 16h-7.654q-.172.003-.346.003c-3.548 0-3.959 2.059-4.3 3.764-.24 1.207-.446 2.236-1.7 2.236-1.27 0-1.507-1.054-1.784-2.28-.383-1.696-.84-3.72-4.216-3.72q-.174 0-.346-.003H18C9.163 62 2 54.837 2 46zm30 58a3 3 0 1 0 0-6 3 3 0 0 0 0 6" clip-rule="evenodd"/></mask><path fill="#3885E3" fill-rule="evenodd" d="M2 18C2 9.163 9.163 2 18 2h28c8.837 0 16 7.163 16 16v28c0 8.837-7.163 16-16 16h-7.654q-.172.003-.346.003c-3.548 0-3.959 2.059-4.3 3.764-.24 1.207-.446 2.236-1.7 2.236-1.27 0-1.507-1.054-1.784-2.28-.383-1.696-.84-3.72-4.216-3.72q-.174 0-.346-.003H18C9.163 62 2 54.837 2 46zm30 58a3 3 0 1 0 0-6 3 3 0 0 0 0 6" clip-rule="evenodd"/><path fill="#fff" d="M38.346 62v-2h-.034zm-4.645 3.767 1.961.392zm-3.485-.043 1.951-.44zM25.654 62l.034-2h-.034zM18 0C8.059 0 0 8.059 0 18h4c0-7.732 6.268-14 14-14zm28 0H18v4h28zm18 18c0-9.941-8.059-18-18-18v4c7.732 0 14 6.268 14 14zm0 28V18h-4v28zM46 64c9.941 0 18-8.059 18-18h-4c0 7.732-6.268 14-14 14zm-7.654 0H46v-4h-7.654zm-.346.003q.19 0 .38-.003l-.068-4q-.154.003-.312.003zm-2.338 2.156c.188-.944.313-1.375.54-1.656.104-.127.437-.5 1.798-.5v-4c-2.187 0-3.833.657-4.907 1.985-.95 1.175-1.202 2.626-1.354 3.388zM32 70.003a3.5 3.5 0 0 0 1.762-.448c.562-.325.941-.773 1.196-1.21.443-.758.605-1.693.704-2.186l-3.923-.783c-.063.317-.108.536-.159.722-.05.186-.082.24-.077.231a.7.7 0 0 1 .257-.237c.161-.093.274-.09.24-.09zm-3.735-3.839c.115.508.303 1.441.76 2.196.262.43.644.871 1.203 1.193.56.322 1.17.45 1.772.45v-4c-.033 0 .072-.004.222.082a.66.66 0 0 1 .224.2c.002.004-.009-.013-.028-.06a2 2 0 0 1-.069-.201c-.057-.193-.11-.42-.182-.74zM26 64.003c1.249 0 1.567.348 1.68.486.237.293.374.739.585 1.675l3.902-.88c-.172-.761-.455-2.176-1.385-3.319-1.056-1.298-2.655-1.962-4.782-1.962zM25.62 64q.19.003.38.003v-4q-.157 0-.312-.003zM18 64h7.654v-4H18zM0 46c0 9.941 8.059 18 18 18v-4c-7.732 0-14-6.268-14-14zm0-28v28h4V18zm33 55a1 1 0 0 1-1 1v4a5 5 0 0 0 5-5zm-1-1a1 1 0 0 1 1 1h4a5 5 0 0 0-5-5zm-1 1a1 1 0 0 1 1-1v-4a5 5 0 0 0-5 5zm1 1a1 1 0 0 1-1-1h-4a5 5 0 0 0 5 5z" mask="url(#a)"/><path fill="#3885E3" d="M16 21a4 4 0 0 1 4-4h24a4 4 0 0 1 4 4v24a4 4 0 0 1-4 4H20a4 4 0 0 1-4-4z"/><path fill="#fff" fill-rule="evenodd" d="M27 43h10a2 2 0 0 0 2 2h1a2 2 0 0 0 2-2V25a4 4 0 0 0-4-4H26a4 4 0 0 0-4 4v18a2 2 0 0 0 2 2h1a2 2 0 0 0 2-2m-3-8h16V25H24zm4 4a2 2 0 1 1-4 0 2 2 0 0 1 4 0m10 2a2 2 0 1 0 0-4 2 2 0 0 0 0 4" clip-rule="evenodd"/></svg>
